FastReport.Core.Web/Resources/save.svg

<svg width="20" height="18" viewBox="0 0 20 18" fill="none" xmlns="http://www.w3.org/2000/svg">
<path d="M14.1538 5L17.6154 5C17.9826 5 18.3348 5.14048 18.5945 5.39052C18.8541 5.64057 19 5.97971 19 6.33333V15.6667C19 16.0203 18.8541 16.3594 18.5945 16.6095C18.3348 16.8595 17.9826 17 17.6154 17H2.38462C2.01739 17 1.66521 16.8595 1.40554 16.6095C1.14588 16.3594 1 16.0203 1 15.6667L1 6.33333C1 5.97971 1.14588 5.64057 1.40554 5.39052C1.66521 5.14048 2.01739 5 2.38462 5H5.84615M10 1L10 11.6667M10 11.6667L7.23077 9M10 11.6667L12.7692 9" stroke="#35363A" stroke-width="2" stroke-linecap="round" stroke-linejoin="round"/>
</svg>

<svg viewBox="0 0 20 18" fill="none" xmlns="http://www.w3.org/2000/svg"><path d="M14.154 5h3.461c.368 0 .72.14.98.39s.405.59.405.943v9.334c0 .353-.146.692-.405.943-.26.25-.612.39-.98.39H2.385c-.368 0-.72-.14-.98-.39S1 16.02 1 15.667V6.333c0-.353.146-.692.406-.942S2.017 5 2.385 5h3.461M10 1v10.667m0 0L7.23 9M10 11.667 12.77 9" stroke="#35363A" stroke-width="2" stroke-linecap="round" stroke-linejoin="round"/></svg>
